X:8
T:Lady Wrixon
M:6/8
L:1/8
R:jig
K:Emin
c |:B2E G2E | B2E Bcd | A2D F2D | A2D FGA |
B2E G2E | B2E Bcd | A2F d2F | E/F/GE E3  :|
|: e2e fdB | e2e fdB | d2d cec | dcB Bcd |
cec BdB | AcA GBG | FAF FdF | E/F/GE E3  :|

